X:1
T:Smith's Reel [1]
M:2/4
L:1/8
N:Transcribed by Frank Maloy based on the playing of Bob Wills
D:Stephen F. Davis - Devil's Box, vol. 30, No. 2, Summer 1996 (p. 45)
Z:AK/Fiddler's Companion
K:D
f/g/|"D"a/f/b/f/ a/f/d/e/|f/a/f/d/ e/d/B/c/|d/e/d/B/ A/B/d/e/|f/a/f/d/ "A7"ef/g/|
"D"a/f/b/f/ a/f/d/e/|f/a/f/d/ e/d/B/c/|d/e/d/B/ A/B/d/e/|1"A7"f/d/e/B/ "D"df/g/:|2 "A7"f/d/e/B/ "D"d>F||
|:"D"[AA][AA] Ad|"G"B/A/B/c/ B/A/F|"D"[AA]A/B/ A/B/d|"A7"f/e/d/f/ e/d/B/F/|
"D"[A2A2] Ad|"G"B/A/B/c/ B/A/F|1 "D"[AA]>B Ae/f/-|"A7"f/d/e/B/ "D"d>F:|2 "D"[AA]>B Ae/f/-|"A7"f/d/e/B/ "D"||

